icons/24/eye.svg

<svg width="24" height="24" viewBox="0 0 24 24" xmlns="http://www.w3.org/2000/svg">
  <path fill-rule="evenodd" clip-rule="evenodd" d="M2.438 11.924C2.963 11.137 4.151 9.511 5.83 8.089C7.514 6.662 9.621 5.5 12 5.5C14.379 5.5 16.486 6.662 18.17 8.089C19.849 9.511 21.037 11.137 21.562 11.924C21.5777 11.9462 21.5861 11.9728 21.5861 12C21.5861 12.0272 21.5777 12.0538 21.562 12.076C21.037 12.863 19.849 14.489 18.17 15.911C16.486 17.338 14.379 18.5 12 18.5C9.621 18.5 7.514 17.338 5.83 15.911C4.151 14.489 2.963 12.863 2.438 12.076C2.42219 12.0538 2.4137 12.0272 2.4137 12C2.4137 11.9728 2.42219 11.9462 2.438 11.924ZM12 4C9.124 4 6.683 5.4 4.86 6.944C3.033 8.492 1.755 10.244 1.19 11.091C1.00935 11.3599 0.912872 11.6765 0.912872 12.0005C0.912872 12.3245 1.00935 12.6411 1.19 12.91C1.755 13.755 3.033 15.508 4.86 17.056C6.684 18.6 9.125 20 12 20C14.876 20 17.317 18.6 19.14 17.056C20.967 15.508 22.245 13.756 22.81 12.909C22.9904 12.64 23.0867 12.3234 23.0867 11.9995C23.0867 11.6756 22.9904 11.359 22.81 11.09C22.245 10.245 20.967 8.492 19.14 6.944C17.316 5.4 14.875 4 12 4ZM14.5 12C14.5 12.663 14.2366 13.2989 13.7678 13.7678C13.2989 14.2366 12.663 14.5 12 14.5C11.337 14.5 10.7011 14.2366 10.2322 13.7678C9.76339 13.2989 9.5 12.663 9.5 12C9.5 11.337 9.76339 10.7011 10.2322 10.2322C10.7011 9.76339 11.337 9.5 12 9.5C12.663 9.5 13.2989 9.76339 13.7678 10.2322C14.2366 10.7011 14.5 11.337 14.5 12ZM16 12C16 13.0609 15.5786 14.0783 14.8284 14.8284C14.0783 15.5786 13.0609 16 12 16C10.9391 16 9.92172 15.5786 9.17157 14.8284C8.42143 14.0783 8 13.0609 8 12C8 10.9391 8.42143 9.92172 9.17157 9.17157C9.92172 8.42143 10.9391 8 12 8C13.0609 8 14.0783 8.42143 14.8284 9.17157C15.5786 9.92172 16 10.9391 16 12Z"/>
</svg>

<svg width="24" height="24" viewBox="0 0 24 24" xmlns="http://www.w3.org/2000/svg">
  <path fill-rule="evenodd" clip-rule="evenodd" d="M2.438 11.924c.525-.787 1.713-2.413 3.392-3.835C7.514 6.662 9.621 5.5 12 5.5s4.486 1.162 6.17 2.589c1.679 1.422 2.867 3.048 3.392 3.835a.132.132 0 010 .152c-.525.787-1.713 2.413-3.392 3.835C16.486 17.338 14.379 18.5 12 18.5s-4.486-1.162-6.17-2.589c-1.679-1.422-2.867-3.048-3.392-3.835a.131.131 0 010-.152zM12 4C9.124 4 6.683 5.4 4.86 6.944c-1.827 1.548-3.105 3.3-3.67 4.147a1.631 1.631 0 000 1.819c.565.845 1.843 2.598 3.67 4.146C6.684 18.6 9.125 20 12 20c2.876 0 5.317-1.4 7.14-2.944 1.827-1.548 3.105-3.3 3.67-4.147a1.633 1.633 0 000-1.819c-.565-.845-1.843-2.598-3.67-4.146C17.316 5.4 14.875 4 12 4zm2.5 8a2.5 2.5 0 11-5 0 2.5 2.5 0 015 0zm1.5 0a4 4 0 11-8 0 4 4 0 018 0z"/>
</svg>
